X: 7
T: Martin Wynne's
C: Martin Wynne
Z: Nadeau
S: https://thesession.org/tunes/359#setting54385
R: reel
M: 4/4
L: 1/8
K: Dmaj
|:DE|"D"FBAF "A"E2FE|"G"DB,~B,2 DB,A,D|"Em"B,EDE "D"FEDE|"Bm"FABc "G"dcBA|
"D"FBAF "A"E2FE|"G"DB,~B,2 DB,A,C|"Em"B,EDE "D"FEDE|"F#m"FBBA "Bm"B2:|
|:AG|"D"FBAF "A"A2dA|(3(Bcd) "Bm"eg fdde|"D"~f2af "A"e2fe|"G"dBAd "Bm"B2AG|
"D"FBAF A2dA|"A"(3(Bcd) eg "D"fdde|"Bm"bfaf "A"egfe|"G"dBAd "Bm"B2:|

%-------------------- TUNE SEPARATOR --------------------%

